packages/connectors/hull-hubspot/assets/logo.svg

<svg height="257" viewBox="0 0 257 257" width="257" xmlns="http://www.w3.org/2000/svg"><g fill="none" fill-rule="evenodd"><path d="m0 0h257v257h-257z" fill="#f8761f"/><path d="m180.964408 125.376786c-2.782696-4.763476-6.69693-8.58225-11.590577-11.457172-3.656988-2.118139-7.449009-3.46249-11.72219-4.039856v-15.1356422c4.273181-1.805223 6.925117-5.8008626 6.925117-10.4623003 0-6.3535686-5.12098-11.5022381-11.501694-11.5022381-6.385841 0-11.596558 5.1486695-11.596558 11.5022381 0 4.6614377 2.498956 8.6570773 6.772137 10.4623003v15.1424452c-3.418545.491483-6.963576 1.551828-10.200938 3.181036-6.61232-4.996463-28.294441-21.3880237-40.9780971-30.9617427.300832-1.0790523.5324384-2.1912669.5324384-3.3647044 0-7.0372235-5.7277719-12.7411499-12.8033051-12.7411499s-12.8007412 5.7039264-12.8007412 12.7411499c0 7.0363732 5.7311904 12.7420002 12.8067236 12.7420002 2.4134927 0 4.6458025-.7023618 6.5721525-1.8570923l2.6767206 2.0203532 36.7801243 26.366629c-1.944298 1.776313-3.755272 3.796666-5.20388 6.063611-2.935676 4.621473-4.729557 9.706369-4.729557 15.252986v1.157282c0 3.893601.743534 7.569522 2.010104 11.022659 1.115301 3.015224 2.745947 5.756646 4.765452 8.23532l-12.206769 12.174839c-1.082824-.397098-2.220345-.614779-3.407435-.614779-2.642535 0-5.12098 1.027183-6.990069 2.883425-1.870799 1.861344-2.895508 4.333215-2.895508 6.964096.000855 2.63003 1.030692 5.101902 2.900636 6.961545 1.869089 1.860494 4.353516 2.885976 6.997761 2.885976 2.644244 0 5.129526-1.025482 7.000325-2.885976 1.866526-1.859643 2.897217-4.332365 2.897217-6.961545 0-1.01783-.158108-2.011-.455521-2.954852l12.616994-12.55493c1.729784 1.188743 3.598019 2.189566 5.606414 3.052638 3.961239 1.704035 8.333557 2.742272 13.118666 2.742272h.876856c5.290199 0 10.280419-1.236361 14.971518-3.765204 4.943215-2.672546 8.812154-6.327208 11.735009-10.992898 2.93824-4.678444 4.556066-9.847521 4.556066-15.534441v-.284006c0-5.594235-1.301611-10.75566-4.035592-15.484272zm-15.415928 26.336868c-3.424527 3.786462-7.360982 6.118881-11.811073 6.118881h-.733278c-2.541688 0-5.027824-.69896-7.461828-1.970184-2.743383-1.399622-4.828695-3.396166-6.535403-5.924159-1.76397-2.481225-2.721162-5.190335-2.721162-8.062706v-.872425c0-2.823903.544403-5.501551 1.916949-8.030394 1.46741-2.76438 3.449312-4.913982 6.08501-6.623119 2.587838-1.697232 5.351732-2.529693 8.430131-2.529693h.286303c2.791242 0 5.433778.547604 7.927606 1.817128 2.540833 1.353704 4.616745 3.203144 6.226025 5.635901 1.563129 2.433607 2.492974 5.058536 2.792096 7.918152.047005.594371.070935 1.203198.070935 1.784815 0 3.880847-1.490485 7.475137-4.472311 10.737803z" fill="#fff"/></g></svg>

<?xml version="1.0" encoding="UTF-8"?>
<svg width="257px" height="257px" viewBox="0 0 257 257" version="1.1" xmlns="http://www.w3.org/2000/svg" xmlns:xlink="http://www.w3.org/1999/xlink">
    <!-- Generator: Sketch 50.2 (55047) - http://www.bohemiancoding.com/sketch -->
    <title>hubspot/logo</title>
    <desc>Created with Sketch.</desc>
    <defs>
        <circle id="path-1" cx="128.5" cy="128.5" r="125.5"></circle>
    </defs>
    <g id="hubspot/logo" stroke="none" stroke-width="1" fill="none" fill-rule="evenodd">
        <mask id="mask-2" fill="white">
            <use xlink:href="#path-1"></use>
        </mask>
        <use id="Mask" fill="#F8761F" xlink:href="#path-1"></use>
        <path d="M180.964408,125.376786 C178.181712,120.61331 174.267478,116.794536 169.373831,113.919614 C165.716843,111.801475 161.924822,110.457124 157.651641,109.879758 L157.651641,94.7441158 C161.924822,92.9388928 164.576758,88.9432532 164.576758,84.2818155 C164.576758,77.9282469 159.455778,72.7795774 153.075064,72.7795774 C146.689223,72.7795774 141.478506,77.9282469 141.478506,84.2818155 C141.478506,88.9432532 143.977462,92.9388928 148.250643,94.7441158 L148.250643,109.886561 C144.832098,110.378044 141.287067,111.438389 138.049705,113.067597 C131.437385,108.071134 109.755264,91.6795733 97.0716079,82.1058543 C97.3724399,81.026802 97.6040463,79.9145874 97.6040463,78.7411499 C97.6040463,71.7039264 91.8762744,66 84.8007412,66 C77.725208,66 72,71.7039264 72,78.7411499 C72,85.7775231 77.7311904,91.4831501 84.8067236,91.4831501 C87.2202163,91.4831501 89.4525261,90.7807883 91.3788761,89.6260578 L94.0555967,91.646411 L130.835721,118.01304 C128.891423,119.789353 127.080449,121.809706 125.631841,124.076651 C122.696165,128.698124 120.902284,133.78302 120.902284,139.329637 L120.902284,140.486919 C120.902284,144.38052 121.645818,148.056441 122.912388,151.509578 C124.027689,154.524802 125.658335,157.266224 127.67784,159.744898 L115.471071,171.919737 C114.388247,171.522639 113.250726,171.304958 112.063636,171.304958 C109.421101,171.304958 106.942656,172.332141 105.073567,174.188383 C103.202768,176.049727 102.178059,178.521598 102.178059,181.152479 C102.178914,183.782509 103.208751,186.254381 105.078695,188.114024 C106.947784,189.974518 109.432211,191 112.076456,191 C114.7207,191 117.205982,189.974518 119.076781,188.114024 C120.943307,186.254381 121.973998,183.781659 121.973998,181.152479 C121.973998,180.134649 121.81589,179.141479 121.518477,178.197627 L134.135471,165.642697 C135.865255,166.83144 137.73349,167.832263 139.741885,168.695335 C143.703124,170.39937 148.075442,171.437607 152.860551,171.437607 L153.737407,171.437607 C159.027606,171.437607 164.017826,170.201246 168.708925,167.672403 C173.65214,164.999857 177.521079,161.345195 180.443934,156.679505 C183.382174,152.001061 185,146.831984 185,141.145064 L185,140.861058 C185,135.266823 183.698389,130.105398 180.964408,125.376786 L180.964408,125.376786 L180.964408,125.376786 Z M165.54848,151.713654 C162.123953,155.500116 158.187498,157.832535 153.737407,157.832535 L153.004129,157.832535 C150.462441,157.832535 147.976305,157.133575 145.542301,155.862351 C142.798918,154.462729 140.713606,152.466185 139.006898,149.938192 C137.242928,147.456967 136.285736,144.747857 136.285736,141.875486 L136.285736,141.003061 C136.285736,138.179158 136.830139,135.50151 138.202685,132.972667 C139.670095,130.208287 141.651997,128.058685 144.287695,126.349548 C146.875533,124.652316 149.639427,123.819855 152.717826,123.819855 L153.004129,123.819855 C155.795371,123.819855 158.437907,124.367459 160.931735,125.636983 C163.472568,126.990687 165.54848,128.840127 167.15776,131.272884 C168.720889,133.706491 169.650734,136.33142 169.949856,139.191036 C169.996861,139.785407 170.020791,140.394234 170.020791,140.975851 C170.020791,144.856698 168.530306,148.450988 165.54848,151.713654 L165.54848,151.713654 L165.54848,151.713654 Z" id="Shape" fill="#FFFFFF" mask="url(#mask-2)"></path>
    </g>
</svg>
